icon-themes/sifr_svg/cmd/lc_shear.svg

<svg viewBox="0 0 24 24" xmlns="http://www.w3.org/2000/svg"><path d="m4 2v12.5625l-1.28125-1.28125c-.18818-.18811-.45344-.28125-.71875-.28125h-1v1c0 .26529.09304.53057.28125.71875l2.71875 2.71875v.5625l16 4v-12.5625l1.28125 1.28125c.18817.18815.45345.28125.71875.28125h1v-1c-.00003-.26531-.09311-.53058-.28125-.71875l-2.71875-2.71875v-.5625zm2 2.5605469 12 3.0019531v11.876953l-12-3.001953z" fill="#555753"/></svg>

<svg xmlns="http://www.w3.org/2000/svg" viewBox="0 0 24 24">
  <path
     style="fill:#555753"
     d="M 4 2 L 4 14.5625 L 2.71875 13.28125 C 2.53057 13.09314 2.26531 13 2 13 L 1 13 L 1 14 C 1 14.26529 1.09304 14.53057 1.28125 14.71875 L 4 17.4375 L 4 18 L 20 22 L 20 9.4375 L 21.28125 10.71875 C 21.46942 10.9069 21.7347 11 22 11 L 23 11 L 23 10 C 22.99997 9.73469 22.90689 9.46942 22.71875 9.28125 L 20 6.5625 L 20 6 L 4 2 z M 6 4.5605469 L 18 7.5625 L 18 19.439453 L 6 16.4375 L 6 4.5605469 z "
     />
</svg>
